icons/svg/craft/handicraft.svg

<?xml version="1.0" encoding="UTF-8" standalone="no"?>
<!-- Created with Inkscape (http://www.inkscape.org/) -->

<svg
   xmlns:dc="http://purl.org/dc/elements/1.1/"
   xmlns:cc="http://creativecommons.org/ns#"
   xmlns:rdf="http://www.w3.org/1999/02/22-rdf-syntax-ns#"
   xmlns:svg="http://www.w3.org/2000/svg"
   xmlns="http://www.w3.org/2000/svg"
   xmlns:sodipodi="http://sodipodi.sourceforge.net/DTD/sodipodi-0.dtd"
   xmlns:inkscape="http://www.inkscape.org/namespaces/inkscape"
   version="1.0"
   width="580"
   height="580"
   id="svg2"
   sodipodi:version="0.32"
   inkscape:version="0.91 r"
   sodipodi:docname="handicraft.svg"
   inkscape:output_extension="org.inkscape.output.svg.inkscape">
  <metadata
     id="metadata2975">
    <rdf:RDF>
      <cc:Work
         rdf:about="">
        <dc:format>image/svg+xml</dc:format>
        <dc:type
           rdf:resource="http://purl.org/dc/dcmitype/StillImage" />
        <cc:license
           rdf:resource="http://web.resource.org/cc/PublicDomain" />
        <dc:language>en</dc:language>
      </cc:Work>
    </rdf:RDF>
  </metadata>
  <sodipodi:namedview
     inkscape:window-height="739"
     inkscape:window-width="1332"
     inkscape:pageshadow="2"
     inkscape:pageopacity="0.0"
     guidetolerance="10.0"
     gridtolerance="10.0"
     objecttolerance="10.0"
     borderopacity="1.0"
     bordercolor="#666666"
     pagecolor="#ffffff"
     id="base"
     inkscape:zoom="0.46083856"
     inkscape:cx="77.722341"
     inkscape:cy="324.70864"
     inkscape:window-x="34"
     inkscape:window-y="1024"
     inkscape:current-layer="svg2"
     showgrid="false"
     inkscape:window-maximized="1" />
  <defs
     id="defs4">
    <inkscape:perspective
       sodipodi:type="inkscape:persp3d"
       inkscape:vp_x="0 : 290 : 1"
       inkscape:vp_y="0 : 1000 : 0"
       inkscape:vp_z="580 : 290 : 1"
       inkscape:persp3d-origin="290 : 193.33333 : 1"
       id="perspective2441" />
    <inkscape:perspective
       id="perspective3452"
       inkscape:persp3d-origin="30 : 20 : 1"
       inkscape:vp_z="60 : 30 : 1"
       inkscape:vp_y="0 : 1000 : 0"
       inkscape:vp_x="0 : 30 : 1"
       sodipodi:type="inkscape:persp3d" />
  </defs>
  <g
     id="g1327">
    <path
       d="M 66.275,1.768 C 24.94,1.768 1.704,23.139 1.704,66.804 L 1.704,516.927 C 1.704,557.771 22.599,579.156 63.896,579.156 L 515.92,579.156 C 557.227,579.156 578.149,558.841 578.149,516.927 L 578.149,66.804 C 578.149,24.203 557.227,1.768 514.628,1.768 C 514.624,1.768 66.133,1.625 66.275,1.768 z "
       style="fill:#111;stroke:#eee;stroke-width:3.40799999"
       id="path1329" />
  </g>
  <path
     inkscape:connector-curvature="0"
     d="m 155.2767,245.45417 71.08128,33.86266 c 4.2817,2.0449 9.86816,-1.6616 9.6483,-6.40145 l -3.5712,-78.65415 c -0.059,-1.22477 -0.44782,-2.40907 -1.12342,-3.42734 L 227.57903,185.20805 141.72867,55.813703 134.26343,44.562026 C 123.97257,29.051582 102.98154,24.8051 87.471105,35.095944 L 64.967747,50.026441 C 49.457308,60.317285 45.210823,81.308323 55.50167,96.818778 l 7.465248,11.251672 85.850352,129.39433 3.73262,5.62585 c 0.67561,1.01827 1.61569,1.83678 2.72681,2.36354 z m 66.72409,16.82985 -50.1572,-23.892 47.63961,-31.60786 2.51759,55.49986 z M 109.86685,68.850993 121.11852,61.385738 210.70151,196.40592 199.44983,203.87117 109.86685,68.850993 Z M 76.111817,91.246733 87.363495,83.781483 176.94647,218.80166 165.69479,226.26691 76.111817,91.246733 Z"
     id="path7"
     style="fill:#ffffff;fill-opacity:1;stroke:none" />
  <path
     d="m 506.4366,295.32042 c -41.68948,-6.75285 -71.35329,35.05519 -108.82639,45.4609 -6.72754,1.85441 -59.81522,11.77255 -60.67314,-0.19183 -1.30689,-18.79983 2.86953,-39.75647 12.48392,-56.0438 17.88994,-30.30459 64.67371,-38.03394 69.55617,-76.88319 2.60576,-20.7315 -11.21303,-38.73735 -30.27928,-45.65406 -43.30808,-15.61857 -97.41089,30.91873 -66.11647,73.80984 5.57653,7.58147 24.21117,15.59858 25.22897,24.53756 0.59815,5.50593 -10.57091,15.78775 -13.22729,19.16884 -12.79433,16.19274 -25.62462,32.42811 -38.43894,48.6768 -1.58263,2.00361 -3.99389,3.83404 -7.04726,5.50726 l 0.24778,-0.35303 c -84.8963,8.60061 -186.73938,0.782 -253.103617,63.78114 70.644567,-2.16081 141.294467,-4.35226 211.939027,-6.50507 -36.88694,53.30214 -73.79652,106.59364 -110.68346,159.89046 88.95548,-21.44955 137.76416,-111.17637 191.13959,-177.7511 3.50231,-4.38423 29.79303,-3.53696 36.55521,-4.70928 9.51715,-1.71853 18.79184,-3.84337 27.72416,-7.55617 10.08599,-4.17108 30.18071,-21.86386 42.22634,-15.5706 8.50601,4.41486 11.3982,24.50558 21.14581,31.47158 9.48384,6.79949 20.77947,9.8875 32.38282,9.88883 55.20584,-0.005 81.77631,-80.57735 17.76605,-90.97508 z M 336.65197,187.1215 c 28.97375,-33.17413 91.57456,1.02445 58.32183,38.46025 -30.86145,34.1333 -91.28547,-0.66476 -58.32183,-38.46025 z m -39.5513,184.9196 c -3.92063,0 -7.1019,-3.87534 -7.1019,-8.65922 0,-4.78255 3.18127,-8.65922 7.1019,-8.65922 3.92328,0 7.10321,3.87667 7.10321,8.65922 0,4.78388 -3.17993,8.65922 -7.10321,8.65922 z m 168.83077,-7.9052 c -34.31049,-30.63099 21.1538,-69.97714 51.14934,-50.36335 41.97322,27.40177 -18.63065,78.54178 -51.14934,50.36335 z"
     id="path11"
     inkscape:connector-curvature="0"
     style="fill:#ffffff" />
</svg>

<svg width="580" height="580" viewBox="0 0 580 580" fill="none" xmlns="http://www.w3.org/2000/svg">
<g clip-path="url(#clip0)">
<path d="M66.275 1.76802C24.94 1.76802 1.70398 23.139 1.70398 66.804V516.927C1.70398 557.771 22.599 579.156 63.896 579.156H515.92C557.227 579.156 578.149 558.841 578.149 516.927V66.804C578.149 24.203 557.227 1.76802 514.628 1.76802C514.624 1.76802 66.133 1.62502 66.275 1.76802Z" fill="#111111" stroke="#EEEEEE" stroke-width="3.408"/>
<path d="M155.277 245.454L226.358 279.317C230.64 281.362 236.226 277.655 236.006 272.915L232.435 194.261C232.376 193.036 231.987 191.852 231.312 190.834L227.579 185.208L141.729 55.8137L134.263 44.562C123.973 29.0516 102.982 24.8051 87.4712 35.096L64.9678 50.0265C49.4574 60.3173 45.2109 81.3083 55.5017 96.8188L62.967 108.07L148.817 237.465L152.55 243.091C153.226 244.109 154.166 244.927 155.277 245.454V245.454ZM222.001 262.284L171.844 238.392L219.483 206.784L222.001 262.284V262.284ZM109.867 68.851L121.119 61.3858L210.702 196.406L199.45 203.871L109.867 68.851ZM76.1119 91.2468L87.3636 83.7815L176.947 218.802L165.695 226.267L76.1119 91.2468Z" fill="white"/>
<path d="M506.437 295.32C464.747 288.568 435.083 330.376 397.61 340.781C390.883 342.636 337.795 352.554 336.937 340.59C335.63 321.79 339.807 300.833 349.421 284.546C367.311 254.241 414.095 246.512 418.977 207.663C421.583 186.931 407.764 168.925 388.698 162.008C345.39 146.39 291.287 192.927 322.581 235.818C328.158 243.4 346.793 251.417 347.81 260.356C348.409 265.862 337.24 276.144 334.583 279.525C321.789 295.717 308.959 311.953 296.144 328.202C294.562 330.205 292.15 332.036 289.097 333.709L289.345 333.356C204.448 341.956 102.605 334.138 36.2411 397.137C106.886 394.976 177.536 392.785 248.18 390.632C211.293 443.934 174.384 497.225 137.497 550.522C226.452 529.073 275.261 439.346 328.636 372.771C332.139 368.387 358.429 369.234 365.191 368.062C374.709 366.343 383.983 364.219 392.916 360.506C403.002 356.335 423.096 338.642 435.142 344.935C443.648 349.35 446.54 369.441 456.288 376.407C465.772 383.206 477.067 386.294 488.671 386.296C543.876 386.291 570.447 305.718 506.437 295.32ZM336.652 187.122C365.626 153.947 428.227 188.146 394.974 225.582C364.112 259.715 303.688 224.917 336.652 187.122ZM297.101 372.041C293.18 372.041 289.999 368.166 289.999 363.382C289.999 358.599 293.18 354.723 297.101 354.723C301.024 354.723 304.204 358.599 304.204 363.382C304.204 368.166 301.024 372.041 297.101 372.041ZM465.931 364.136C431.621 333.505 487.085 294.159 517.081 313.773C559.054 341.174 498.45 392.314 465.931 364.136V364.136Z" fill="white"/>
</g>
<defs>
<clipPath id="clip0">
<path d="M0 0H580V580H0V0Z" fill="white"/>
</clipPath>
</defs>
</svg>
